X: 04074
T: POMPELIA
C: Bob McQuillen 1 Oct 79
B: Bob's Note Book 04 #74
%R: waltz
Z: 2019 John Chambers <jc:trillian.mit.edu>
M: 3/4
L: 1/4
K: Em
[| E>FE | eBe | fe>d | e>dB | G>FE | eBe | f>ed | BAF |
|  E>FE | eBe | f>ed | e>de | f>ed | eBG/B/ | AF>D | E3 |]
[| G2F/G/ | AFD | B>AG | AFD | G>FG | AGA | Be>d | BGA |
|  Beg | f>df | gab | a>fd | b>ab | ge>B | ABd | e3 |]
%%begintext align
%% Pompelia - a place of beauty,
%% joy, and love. It's nothing
%% but a memory now, but what it
%% stood for will linger in our hearts.
%%endtext

%%sep 1 1 500

%%sep 1 1 500

